assets/img/presentacion-nosotros.svg

<svg width="96" height="96" fill="none" xmlns="http://www.w3.org/2000/svg"><g clip-path="url(#a)"><path d="M76 12H59.28C57.6 7.36 53.2 4 48 4c-5.2 0-9.6 3.36-11.28 8H20c-4.4 0-8 3.6-8 8v56c0 4.4 3.6 8 8 8h56c4.4 0 8-3.6 8-8V20c0-4.4-3.6-8-8-8Zm-28 0c2.2 0 4 1.8 4 4s-1.8 4-4 4-4-1.8-4-4 1.8-4 4-4Zm0 16c6.64 0 12 5.36 12 12s-5.36 12-12 12-12-5.36-12-12 5.36-12 12-12Zm24 48H24v-5.6c0-8 16-12.4 24-12.4s24 4.4 24 12.4V76Z" fill="#C8B6FF"/></g><defs><clipPath id="a"><path fill="#fff" d="M0 0h96v96H0z"/></clipPath></defs></svg>

<svg width="96" height="96" viewBox="0 0 96 96" fill="none" xmlns="http://www.w3.org/2000/svg">
<g clip-path="url(#clip0_77_20)">
<path d="M76 12H59.28C57.6 7.36 53.2 4 48 4C42.8 4 38.4 7.36 36.72 12H20C15.6 12 12 15.6 12 20V76C12 80.4 15.6 84 20 84H76C80.4 84 84 80.4 84 76V20C84 15.6 80.4 12 76 12ZM48 12C50.2 12 52 13.8 52 16C52 18.2 50.2 20 48 20C45.8 20 44 18.2 44 16C44 13.8 45.8 12 48 12ZM48 28C54.64 28 60 33.36 60 40C60 46.64 54.64 52 48 52C41.36 52 36 46.64 36 40C36 33.36 41.36 28 48 28ZM72 76H24V70.4C24 62.4 40 58 48 58C56 58 72 62.4 72 70.4V76Z" fill="#C8B6FF"/>
</g>
<defs>
<clipPath id="clip0_77_20">
<rect width="96" height="96" fill="white"/>
</clipPath>
</defs>
</svg>
